img/icons/instagram-preto.svg

<svg width="16" height="16" viewBox="0 0 16 16" fill="none" xmlns="http://www.w3.org/2000/svg">
<g clip-path="url(#clip0_14_22)">
<path d="M8 1.442C10.136 1.442 10.3893 1.45 11.2333 1.48867C13.4013 1.58733 14.414 2.616 14.5127 4.768C14.5513 5.61133 14.5587 5.86467 14.5587 8.00067C14.5587 10.1373 14.5507 10.39 14.5127 11.2333C14.4133 13.3833 13.4033 14.414 11.2333 14.5127C10.3893 14.5513 10.1373 14.5593 8 14.5593C5.864 14.5593 5.61067 14.5513 4.76733 14.5127C2.594 14.4133 1.58667 13.38 1.488 11.2327C1.44933 10.3893 1.44133 10.1367 1.44133 8C1.44133 5.864 1.45 5.61133 1.488 4.76733C1.58733 2.616 2.59733 1.58667 4.76733 1.488C5.61133 1.45 5.864 1.442 8 1.442ZM8 0C5.82733 0 5.55533 0.00933333 4.702 0.048C1.79667 0.181333 0.182 1.79333 0.0486667 4.70133C0.00933333 5.55533 0 5.82733 0 8C0 10.1727 0.00933333 10.4453 0.048 11.2987C0.181333 14.204 1.79333 15.8187 4.70133 15.952C5.55533 15.9907 5.82733 16 8 16C10.1727 16 10.4453 15.9907 11.2987 15.952C14.2013 15.8187 15.82 14.2067 15.9513 11.2987C15.9907 10.4453 16 10.1727 16 8C16 5.82733 15.9907 5.55533 15.952 4.702C15.8213 1.79933 14.2073 0.182 11.2993 0.0486667C10.4453 0.00933333 10.1727 0 8 0ZM8 3.892C5.73133 3.892 3.892 5.73133 3.892 8C3.892 10.2687 5.73133 12.1087 8 12.1087C10.2687 12.1087 12.108 10.2693 12.108 8C12.108 5.73133 10.2687 3.892 8 3.892ZM8 10.6667C6.52733 10.6667 5.33333 9.47333 5.33333 8C5.33333 6.52733 6.52733 5.33333 8 5.33333C9.47267 5.33333 10.6667 6.52733 10.6667 8C10.6667 9.47333 9.47267 10.6667 8 10.6667ZM12.2707 2.77C11.74 2.77 11.31 3.2 11.31 3.73C11.31 4.26 11.74 4.69 12.2707 4.69C12.8007 4.69 13.23 4.26 13.23 3.73C13.23 3.2 12.8007 2.77 12.2707 2.77Z" fill="#262626"/>
</g>
<defs>
<clipPath id="clip0_14_22">
<rect width="16" height="16" fill="white"/>
</clipPath>
</defs>
</svg>

<svg width="16" height="16" fill="none" xmlns="http://www.w3.org/2000/svg"><g clip-path="url(#a)"><path d="M8 1.442c2.136 0 2.39.008 3.233.047 2.168.098 3.181 1.127 3.28 3.279.038.843.046 1.097.046 3.233s-.008 2.389-.046 3.232c-.1 2.15-1.11 3.181-3.28 3.28-.844.038-1.096.046-3.233.046-2.136 0-2.39-.008-3.233-.046-2.173-.1-3.18-1.133-3.279-3.28-.039-.844-.047-1.096-.047-3.233 0-2.136.009-2.389.047-3.233.1-2.151 1.11-3.18 3.28-3.279C5.61 1.45 5.863 1.442 8 1.442ZM8 0C5.827 0 5.555.01 4.702.048 1.797.181.182 1.793.049 4.701.009 5.555 0 5.827 0 8s.01 2.445.048 3.299c.133 2.905 1.745 4.52 4.653 4.653C5.555 15.991 5.827 16 8 16s2.445-.01 3.299-.048c2.902-.133 4.521-1.745 4.652-4.653.04-.854.049-1.126.049-3.299s-.01-2.445-.048-3.298c-.13-2.903-1.745-4.52-4.653-4.653C10.445.009 10.173 0 8 0Zm0 3.892a4.108 4.108 0 1 0 0 8.216 4.108 4.108 0 0 0 0-8.216Zm0 6.775a2.666 2.666 0 1 1 0-5.333 2.666 2.666 0 0 1 0 5.333Zm4.27-7.897a.96.96 0 1 0 0 1.92.96.96 0 0 0 0-1.92Z" fill="#262626"/></g><defs><clipPath id="a"><path fill="#fff" d="M0 0h16v16H0z"/></clipPath></defs></svg>
